!!!OTL: Vrienden, kommt alle gaere
!!!ARE: Europa, Mitteleuropa, Deutschland
!!!SCT: L0091
!!!YEM: Copyright 1995, estate of Helmut Schaffrath.
**kern
*ICvox
*Ivox
*M3/4
*k[]
*a:
{8.a
16b
=1
4ccn
4a
4e
=2
8.a
16b
4a}
{8.a
16b
=3
4ccn
4a
4e
=4
8.a
16b
4a}
{8.a
16ccn
=5
4b
4gn
4e
=6
8.gn
16a
4gn}
{8.gn
16a
=7
4b
4gn
4f#
=8
8.e
16f#
8e
8r}
{8.cn
16d
=9
4e
4e
4fn
=10
8.gn
16a
4gn}
{8.a
16a
=11
4e
4e
4a
=12
8.b
16ccn
4b}
{8.a
16b
=13
4ccn
4a
4e
=14
8.a
16b
4a}
==
!!!AGN: Lied
!! Flaemisch, von der Familie Westendorp aus Elberfeld
!!!ONB: ESAC (Essen Associative Code) Database: ERK5
!!!AMT: simple triple
!!!AIN: vox
!!!EED: Helmut Schaffrath
!!!EEV: 1.0
*-
